!!!COM: Music21
!!!OTL: jig_Stormless-Isle--The
!!!OMV: jig_Stormless-Isle--The
**kern
*clefG2
*k[f#c#]
*b:
*M6/8
=1
8r
8bL
8f#J
8r
8eL
8eJ
=
8dL
8e
8f#J
4e
8d
=
8eL
8f#
8f#J
8f#L
8a
8bJ
=
8eeL
8dd
8bJ
8aL
8f#
8aJ
=
8r
8bL
8f#J
8r
8eL
8eJ
=
8dL
8e
8f#J
4e
8d
!!linebreak:original
=
8eL
8f#
8f#J
8f#L
8a
8bJ
=
8aL
8f#
8eJ
8d
4b
=||
*M6/8
8r
8bL
8f#J
8r
8eL
8eJ
=
8dL
8e
8f#J
4e
8d
=
8eL
8f#
8f#J
8f#L
8a
8bJ
=
8eeL
8dd
8bJ
8aL
8f#
8aJ
!!linebreak:original
=
8r
8bL
8f#J
8r
8eL
8eJ
=
8dL
8e
8f#J
4e
8d
=
8eL
8f#
8f#J
8f#L
8a
8bJ
=
8aL
8f#
8eJ
8d
4b
=||
8r
8f#L
8aJ
8bL
8dd
8eeJ
=
4cc#
8a
8f#L
8e
8f#J
=
4a
8f#
8eL
8d
8f#J
!!linebreak:original
=
8eL
8d
8eJ
8eL
8d
8eJ
=
8f#L
8a
8bJ
8ddL
8ee
8ddJ
=
4cc#
8a
8f#L
8e
8f#J
=
8aL
8f#
8bJ
8bL
8a
8f#J
=
8eL
8d
8f#J
8f#L
8d
8eJ
=
8r
8f#L
8aJ
8bL
8dd
8eeJ
=
4cc#
8a
8f#L
8e
8f#J
!!linebreak:original
=
4a
8f#
8eL
8d
8f#J
=
8eL
8d
8eJ
8eL
8f#
8aJ
=
8bL
8a
8f#J
4e
8f#
=
8aL
8f#
8eJ
8dL
8e
8f#J
=
8aL
8f#
8bJ
8aL
8f#
8eJ
=
8ddL
8b
8eeJ
8ddL
8a
8f#J
!!linebreak:original
=||
*M6/8
8r
8bL
8f#J
8r
8eL
8eJ
=
8dL
8e
8f#J
4e
8d
=
8eL
8f#
8f#J
8f#L
8a
8bJ
=
8eeL
8dd
8bJ
8aL
8f#
8aJ
=
8r
8bL
8f#J
8r
8eL
8eJ
=
8dL
8e
8f#J
4e
8d
!!linebreak:original
=
8eL
8f#
8f#J
8f#L
8a
8bJ
=
8aL
8f#
8eJ
8d
4b
=||
*M6/8
8r
8bL
8f#J
8r
8eL
8eJ
=
8dL
8e
8f#J
4e
8d
=
8eL
8f#
8f#J
8f#L
8a
8bJ
=
8eeL
8dd
8bJ
8aL
8f#
8aJ
!!linebreak:original
=
8r
8bL
8f#J
8r
8eL
8eJ
=
8dL
8e
8f#J
4e
8d
=
8eL
8f#
8f#J
8f#L
8a
8bJ
=
8aL
8f#
8eJ
8d
4b
=||
8r
8f#L
8aJ
8bL
8dd
8eeJ
=
4cc#
8a
8f#L
8e
8f#J
=
4a
8f#
8eL
8d
8f#J
!!linebreak:original
=
8eL
8d
8eJ
8eL
8d
8eJ
=
8f#L
8a
8bJ
8ddL
8ee
8ddJ
=
4cc#
8a
8f#L
8e
8f#J
=
8aL
8f#
8bJ
8bL
8a
8f#J
=
8eL
8d
8f#J
8f#L
8d
8eJ
=
8r
8f#L
8aJ
8bL
8dd
8eeJ
=
4cc#
8a
8f#L
8e
8f#J
!!linebreak:original
=
4a
8f#
8eL
8d
8f#J
=
8eL
8d
8eJ
8eL
8f#
8aJ
=
8bL
8a
8f#J
4e
8f#
=
8aL
8f#
8eJ
8dL
8e
8f#J
=
8aL
8f#
8bJ
8aL
8f#
8eJ
=
8ddL
8b
8eeJ
8ddL
8a
8f#J
!!pagebreak:original
=||
8f#L
16bL
16bJ
8bJ
8bL
8a
8f#J
=
8bL
16ddL
16ddJ
8ddJ
8ddL
8b
8aJ
=
4ff#
8dd
8eeL
8dd
8bJ
=
8aL
8dd
8bJ
8aL
8f#
8eJ
=
8f#L
16bL
16bJ
8bJ
8bL
8a
8f#J
=
8r
8cc#L
8aJ
8f#L
8e
8f#J
!!linebreak:original
=
8aL
8f#
8bJ
8bL
8a
8f#J
=
8cc#L
8a
8bJ
4b
8a
=
8f#L
16bL
16bJ
8bJ
8bL
8a
8f#J
=
8bL
16ddL
16ddJ
8ddJ
8ddL
8b
8aJ
=
8ff#L
8bb
8ff#J
8eeL
8dd
8bJ
=
8eeL
8dd
8eeJ
8eeL
8dd
8eeJ
!!linebreak:original
=
8ff#L
8bb
8ff#J
4ee
8dd
=
8eeL
8aa
8eeJ
8ff#L
8dd
8aJ
=
8bL
16bL
16bJ
8bJ
8ddL
8b
8aJ
=
8eL
8d
8bJ
4.b
=
*-
